www/assets/icons/10k.svg

<svg xmlns="http://www.w3.org/2000/svg" width="24" height="24" viewBox="0 0 24 24" fill='currentColor'><path d="M10 10.5h1.5v3H10zM19 3H5c-1.1 0-2 .9-2 2v14c0 1.1.9 2 2 2h14c1.1 0 2-.9 2-2V5c0-1.1-.9-2-2-2M7.5 15H6v-4.5H4.5V9h3zm5.5-1c0 .55-.45 1-1 1H9.5c-.55 0-1-.45-1-1v-4c0-.55.45-1 1-1H12c.55 0 1 .45 1 1zm6.5 1h-1.75L16 12.75V15h-1.5V9H16v2.25L17.75 9h1.75l-2.25 3z"/></svg>

<svg width="24" height="24" viewBox="0 0 24 24" xmlns="http://www.w3.org/2000/svg" fill='currentColor'><path d="M10 10.5H11.5V13.5H10V10.5ZM19 3H5C3.9 3 3 3.9 3 5V19C3 20.1 3.9 21 5 21H19C20.1 21 21 20.1 21 19V5C21 3.9 20.1 3 19 3ZM7.5 15H6V10.5H4.5V9H7.5V15ZM13 14C13 14.55 12.55 15 12 15H9.5C8.95 15 8.5 14.55 8.5 14V10C8.5 9.45 8.95 9 9.5 9H12C12.55 9 13 9.45 13 10V14ZM19.5 15H17.75L16 12.75V15H14.5V9H16V11.25L17.75 9H19.5L17.25 12L19.5 15Z"/></svg>
